X:97
T:Steyrer Tanz in G, nr. 66
C:traditionell
R:Steirer
A:Hallstatt, Salzkammergut
B:Corpus Musicae Popularis Austriacae (COMPA), 5.Band: J.M.Schmalnauer " Tanz Musik", Verlag Boehlau, Wien 1996
S:manuscript des Johann Michael Schmalnauer um 1820
N:im der quelle in G
Z:abc transcription Simon Wascher
F:http://simonwascher.info/TradArchiv/
M:3/4
L:1/8
K:G
V:1
%violino 1mo
G,BBDcD | BddD B2 | DccD d2 | DBBD G2 |\
G,BBDcD | BddD B2 | DccDdB | "in D"G6 :|
V:2
%violino 2do
B,DGDAD | GBBD G2 | FAAF B2 | DGGD B,2 |\
B,DGDAD | GBBD G2 | FAAFBG | "in D"B,6 :|
